X:262
T:6/8 sans titre
C:Jean-Francois Bélanger
S:Jean-Francois Bélanger
R:jig
M:6/8
L:1/8
K:F
F3 GFE | FAF GFE | DA,D FED | ECE cBG |
F3 GFE | FAF GAB| AFD DEF | EDC D2E |
F3 GFE | FAF GFE | DA,D FED | ECE cBG |
F3 GFE | F3 ABc |dAF DEF | EDC D3 ||
fcA AcA | F3 CFA | BAG GFG | E3 cde
fcA AcA | F3 CFA | BAG E2C | GFE F3
fcA AcA | F3 CFA | BAG GFG | E3 cde
fcA AcA | F3 CFA | BAG  DEF | EDC D2E |
